icons/square-chevron-left-outline.svg

<svg xmlns="http://www.w3.org/2000/svg" width="24" height="24" viewBox="0 0 24 24">
  <path d="M19,2 C20.6568542,2 22,3.34314575 22,5 L22,5 L22,19 C22,20.6568542 20.6568542,22 19,22 L19,22 L5,22 C3.34314575,22 2,20.6568542 2,19 L2,19 L2,5 C2,3.34314575 3.34314575,2 5,2 L5,2 Z M19,4 L5,4 C4.44771525,4 4,4.44771525 4,5 L4,5 L4,19 C4,19.5522847 4.44771525,20 5,20 L5,20 L19,20 C19.5522847,20 20,19.5522847 20,19 L20,19 L20,5 C20,4.44771525 19.5522847,4 19,4 L19,4 Z M14.7071068,7.29289322 C15.0675907,7.65337718 15.0953203,8.22060824 14.7902954,8.61289944 L14.7071068,8.70710678 L11.415,12 L14.7071068,15.2928932 C15.0675907,15.6533772 15.0953203,16.2206082 14.7902954,16.6128994 L14.7071068,16.7071068 C14.3466228,17.0675907 13.7793918,17.0953203 13.3871006,16.7902954 L13.2928932,16.7071068 L9.29289322,12.7071068 C8.93240926,12.3466228 8.90467972,11.7793918 9.20970461,11.3871006 L9.29289322,11.2928932 L13.2928932,7.29289322 C13.6834175,6.90236893 14.3165825,6.90236893 14.7071068,7.29289322 Z"/>
</svg>

<svg xmlns="http://www.w3.org/2000/svg" viewBox="0 0 24 24">
  <path d="M19 2a3 3 0 0 1 3 3v14a3 3 0 0 1-3 3H5a3 3 0 0 1-3-3V5a3 3 0 0 1 3-3zm0 2H5a1 1 0 0 0-1 1v14a1 1 0 0 0 1 1h14a1 1 0 0 0 1-1V5a1 1 0 0 0-1-1zm-4.3 3.3a1 1 0 0 1 .09 1.31l-.08.1L11.4 12l3.3 3.3a1 1 0 0 1 .08 1.31l-.08.1a1 1 0 0 1-1.32.08l-.1-.08-4-4a1 1 0 0 1-.08-1.32l.08-.1 4-4a1 1 0 0 1 1.42 0z"/>
</svg>
